www/assets/images/test_icons/flags/EC.svg

<svg width="21" height="15" viewBox="0 0 21 15" fill="none" xmlns="http://www.w3.org/2000/svg">
<mask id="mask0_3_161" style="mask-type:alpha" maskUnits="userSpaceOnUse" x="0" y="0" width="21" height="15">
<path d="M19 0H2C0.89543 0 0 0.89543 0 2V13C0 14.1046 0.89543 15 2 15H19C20.1046 15 21 14.1046 21 13V2C21 0.89543 20.1046 0 19 0Z" fill="white"/>
</mask>
<g mask="url(#mask0_3_161)">
<path d="M19 0H2C0.89543 0 0 0.89543 0 2V13C0 14.1046 0.89543 15 2 15H19C20.1046 15 21 14.1046 21 13V2C21 0.89543 20.1046 0 19 0Z" fill="#004BA5"/>
<path fill-rule="evenodd" clip-rule="evenodd" d="M0 11H21V15H0V11Z" fill="#F01616"/>
<path fill-rule="evenodd" clip-rule="evenodd" d="M0 0H21V8H0V0Z" fill="#FFDF00"/>
<path fill-rule="evenodd" clip-rule="evenodd" d="M6 4H9L10.5 5L12 4H15L12 5L11 6H10L9 5L6 4Z" fill="#3D2620"/>
<path d="M10.5 10C11.3284 10 12 9.10457 12 8C12 6.89543 11.3284 6 10.5 6C9.67157 6 9 6.89543 9 8C9 9.10457 9.67157 10 10.5 10Z" fill="#07A7D3"/>
<path fill-rule="evenodd" clip-rule="evenodd" d="M8 7V9L10 10H11L13 9V7L14 9L13 10L11 11H10L8 10L7 9L8 7Z" fill="#FFDF00"/>
<path d="M19 0.5H2C1.17157 0.5 0.5 1.17157 0.5 2V13C0.5 13.8284 1.17157 14.5 2 14.5H19C19.8284 14.5 20.5 13.8284 20.5 13V2C20.5 1.17157 19.8284 0.5 19 0.5Z" stroke="black" stroke-opacity="0.1"/>
</g>
</svg>

<svg fill="none" height="15" viewBox="0 0 21 15" width="21" xmlns="http://www.w3.org/2000/svg" xmlns:xlink="http://www.w3.org/1999/xlink"><mask id="a" height="15" maskUnits="userSpaceOnUse" width="21" x="0" y="0"><path d="m19 0h-17c-1.10457 0-2 .89543-2 2v11c0 1.1046.89543 2 2 2h17c1.1046 0 2-.8954 2-2v-11c0-1.10457-.8954-2-2-2z" fill="#fff"/></mask><g mask="url(#a)"><path d="m19 0h-17c-1.10457 0-2 .89543-2 2v11c0 1.1046.89543 2 2 2h17c1.1046 0 2-.8954 2-2v-11c0-1.10457-.8954-2-2-2z" fill="#004ba5"/><g clip-rule="evenodd" fill-rule="evenodd"><path d="m0 11h21v4h-21z" fill="#f01616"/><path d="m0 0h21v8h-21z" fill="#ffdf00"/><path d="m6 4h3l1.5 1 1.5-1h3l-3 1-1 1h-1l-1-1z" fill="#3d2620"/></g><path d="m10.5 10c.8284 0 1.5-.89543 1.5-2s-.6716-2-1.5-2c-.82843 0-1.5.89543-1.5 2s.67157 2 1.5 2z" fill="#07a7d3"/><path clip-rule="evenodd" d="m8 7v2l2 1h1l2-1v-2l1 2-1 1-2 1h-1l-2-1-1-1z" fill="#ffdf00" fill-rule="evenodd"/><path d="m19 .5h-17c-.82843 0-1.5.67157-1.5 1.5v11c0 .8284.67157 1.5 1.5 1.5h17c.8284 0 1.5-.6716 1.5-1.5v-11c0-.82843-.6716-1.5-1.5-1.5z" stroke="#000" stroke-opacity=".1"/></g></svg>
